X:561
T:Polska efter Olof Nordblad
T:(SvL Hälsingland 561)
R:Polska
O:Norrala, Hälsingland
S:Olof Nordblad
B:Svenska Låtar Hälsingland, nr 561
Z:Till abc Jonas Brunskog
M:3/4
L:1/16
K:C
vg4 e2ce g2g2|a4 f2cf a2a2|g2eg f2df e2c2|c2Bc dcBA G4|
g4 e2ce g2g2|a4 afcf a2a2|g2eg f2df e2c2|BcdB c4 C4:|
|:gece gece gece|f2af d2fd e2c2|gece gece gece|f2af d2fd e2c2|
g4 (ge)ce g2g2|a4 (af)cf a2a2|g2eg f2df e2c2|BcdB c4 C4:|

